X:0
T:Schooldays End
C:Ewan McColl
M:4/4
L:1/8
K:AMix
A,2B,2|D4    D3  E |F2 (FE) F4    |z8           |
       E2 EF ED B,2|D2  D2 (B,A,3)|z8           |
       D2 DE F2 A2 |B2  d2 (cB) A2|B2 BA  F2 A2 |B8  |
       A2 AB A2 FE |F2  A2 (FE) D2|E2 EF (ED)B,2|A,8|]
